images/3234133.svg

<?xml version="1.0" encoding="UTF-8"?>
<svg xmlns="http://www.w3.org/2000/svg" xmlns:xlink="http://www.w3.org/1999/xlink" width="300pt" height="300pt" viewBox="0 0 300 300" version="1.1">
<defs>
<g>
<symbol overflow="visible" id="glyph0-0">
<path style="stroke:none;" d="M 0.453125 1.59375 L 0.453125 -6.34375 L 4.953125 -6.34375 L 4.953125 1.59375 Z M 0.953125 1.09375 L 4.453125 1.09375 L 4.453125 -5.84375 L 0.953125 -5.84375 Z M 0.953125 1.09375 "/>
</symbol>
<symbol overflow="visible" id="glyph0-1">
<path style="stroke:none;" d="M 0.890625 -6.5625 L 2.078125 -6.5625 L 4.984375 -1.078125 L 4.984375 -6.5625 L 5.84375 -6.5625 L 5.84375 0 L 4.65625 0 L 1.75 -5.484375 L 1.75 0 L 0.890625 0 Z M 0.890625 -6.5625 "/>
</symbol>
<symbol overflow="visible" id="glyph0-2">
<path style="stroke:none;" d="M 3.546875 -5.953125 C 2.898438 -5.953125 2.382812 -5.710938 2 -5.234375 C 1.625 -4.753906 1.4375 -4.101562 1.4375 -3.28125 C 1.4375 -2.445312 1.625 -1.789062 2 -1.3125 C 2.382812 -0.832031 2.898438 -0.59375 3.546875 -0.59375 C 4.191406 -0.59375 4.703125 -0.832031 5.078125 -1.3125 C 5.453125 -1.789062 5.640625 -2.445312 5.640625 -3.28125 C 5.640625 -4.101562 5.453125 -4.753906 5.078125 -5.234375 C 4.703125 -5.710938 4.191406 -5.953125 3.546875 -5.953125 Z M 3.546875 -6.6875 C 4.460938 -6.6875 5.195312 -6.375 5.75 -5.75 C 6.300781 -5.132812 6.578125 -4.3125 6.578125 -3.28125 C 6.578125 -2.238281 6.300781 -1.410156 5.75 -0.796875 C 5.195312 -0.179688 4.460938 0.125 3.546875 0.125 C 2.617188 0.125 1.878906 -0.179688 1.328125 -0.796875 C 0.773438 -1.410156 0.5 -2.238281 0.5 -3.28125 C 0.5 -4.3125 0.773438 -5.132812 1.328125 -5.75 C 1.878906 -6.375 2.617188 -6.6875 3.546875 -6.6875 Z M 3.546875 -6.6875 "/>
</symbol>
<symbol overflow="visible" id="glyph0-3">
<path style="stroke:none;" d="M 0.890625 -6.5625 L 4.65625 -6.5625 L 4.65625 -5.8125 L 1.765625 -5.8125 L 1.765625 -3.875 L 4.375 -3.875 L 4.375 -3.140625 L 1.765625 -3.140625 L 1.765625 0 L 0.890625 0 Z M 0.890625 -6.5625 "/>
</symbol>
<symbol overflow="visible" id="glyph0-4">
<path style="stroke:none;" d="M 0.890625 -6.5625 L 1.765625 -6.5625 L 1.765625 -3.875 L 5 -3.875 L 5 -6.5625 L 5.890625 -6.5625 L 5.890625 0 L 5 0 L 5 -3.125 L 1.765625 -3.125 L 1.765625 0 L 0.890625 0 Z M 0.890625 -6.5625 "/>
</symbol>
</g>
</defs>
<g id="surface46365">
<rect x="0" y="0" width="300" height="300" style="fill:rgb(100%,100%,100%);fill-opacity:1;stroke:none;"/>
<path style="fill:none;stroke-width:1.2;stroke-linecap:butt;stroke-linejoin:miter;stroke:rgb(0%,0%,0%);stroke-opacity:1;stroke-miterlimit:10;" d="M 163.726562 210.109375 L 141.738281 204.550781 "/>
<path style="fill:none;stroke-width:1.2;stroke-linecap:butt;stroke-linejoin:miter;stroke:rgb(0%,0%,0%);stroke-opacity:1;stroke-miterlimit:10;" d="M 179.53125 193.847656 L 163.726562 210.109375 "/>
<path style="fill:none;stroke-width:1.2;stroke-linecap:butt;stroke-linejoin:miter;stroke:rgb(0%,0%,0%);stroke-opacity:1;stroke-miterlimit:10;" d="M 141.738281 204.550781 L 135.558594 182.730469 "/>
<path style="fill:none;stroke-width:1.2;stroke-linecap:butt;stroke-linejoin:miter;stroke:rgb(0%,0%,0%);stroke-opacity:1;stroke-miterlimit:10;" d="M 135.558594 182.730469 L 129.378906 160.910156 "/>
<path style="fill:none;stroke-width:1.2;stroke-linecap:butt;stroke-linejoin:miter;stroke:rgb(0%,0%,0%);stroke-opacity:1;stroke-miterlimit:10;" d="M 135.558594 182.730469 L 151.367188 166.46875 "/>
<path style="fill:none;stroke-width:1.2;stroke-linecap:butt;stroke-linejoin:miter;stroke:rgb(0%,0%,0%);stroke-opacity:1;stroke-miterlimit:10;" d="M 119.75 198.992188 L 135.558594 182.730469 "/>
<path style="fill:none;stroke-width:1.2;stroke-linecap:butt;stroke-linejoin:miter;stroke:rgb(0%,0%,0%);stroke-opacity:1;stroke-miterlimit:10;" d="M 129.378906 160.910156 L 107.390625 155.351562 "/>
<path style="fill:none;stroke-width:1.2;stroke-linecap:butt;stroke-linejoin:miter;stroke:rgb(0%,0%,0%);stroke-opacity:1;stroke-miterlimit:10;" d="M 107.390625 155.351562 L 99.488281 163.484375 "/>
<path style="fill:none;stroke-width:1.2;stroke-linecap:butt;stroke-linejoin:miter;stroke:rgb(0%,0%,100%);stroke-opacity:1;stroke-miterlimit:10;" d="M 99.488281 163.484375 L 91.582031 171.613281 "/>
<path style="fill:none;stroke-width:1.2;stroke-linecap:butt;stroke-linejoin:miter;stroke:rgb(0%,0%,100%);stroke-opacity:1;stroke-miterlimit:10;" d="M 91.582031 171.613281 L 94.671875 182.523438 "/>
<path style="fill:none;stroke-width:1.2;stroke-linecap:butt;stroke-linejoin:miter;stroke:rgb(0%,0%,0%);stroke-opacity:1;stroke-miterlimit:10;" d="M 94.671875 182.523438 L 97.761719 193.433594 "/>
<path style="fill:none;stroke-width:1.2;stroke-linecap:butt;stroke-linejoin:miter;stroke:rgb(0%,0%,100%);stroke-opacity:1;stroke-miterlimit:10;" d="M 91.582031 171.613281 L 80.589844 168.835938 "/>
<path style="fill:none;stroke-width:1.2;stroke-linecap:butt;stroke-linejoin:miter;stroke:rgb(0%,0%,0%);stroke-opacity:1;stroke-miterlimit:10;" d="M 80.589844 168.835938 L 69.597656 166.054688 "/>
<path style=" stroke:none;fill-rule:nonzero;fill:rgb(100%,100%,100%);fill-opacity:1;" d="M 88.582031 166.113281 L 95.582031 166.113281 L 95.582031 177.113281 L 88.582031 177.113281 Z M 88.582031 166.113281 "/>
<g style="fill:rgb(0%,0%,100%);fill-opacity:1;">
  <use xlink:href="#glyph0-1" x="88.582031" y="174.776367"/>
</g>
<path style="fill:none;stroke-width:1.2;stroke-linecap:butt;stroke-linejoin:miter;stroke:rgb(0%,0%,0%);stroke-opacity:1;stroke-miterlimit:10;" d="M 97.761719 193.433594 L 119.75 198.992188 "/>
<path style="fill:none;stroke-width:1.2;stroke-linecap:butt;stroke-linejoin:miter;stroke:rgb(0%,0%,0%);stroke-opacity:1;stroke-miterlimit:10;" d="M 67.683594 164.195312 L 59.78125 172.328125 "/>
<path style="fill:none;stroke-width:1.2;stroke-linecap:butt;stroke-linejoin:miter;stroke:rgb(100%,0%,0%);stroke-opacity:1;stroke-miterlimit:10;" d="M 59.78125 172.328125 L 51.875 180.457031 "/>
<path style="fill:none;stroke-width:1.2;stroke-linecap:butt;stroke-linejoin:miter;stroke:rgb(0%,0%,0%);stroke-opacity:1;stroke-miterlimit:10;" d="M 71.507812 167.914062 L 63.605469 176.046875 "/>
<path style="fill:none;stroke-width:1.2;stroke-linecap:butt;stroke-linejoin:miter;stroke:rgb(100%,0%,0%);stroke-opacity:1;stroke-miterlimit:10;" d="M 63.605469 176.046875 L 55.703125 184.175781 "/>
<path style="fill:none;stroke-width:1.2;stroke-linecap:butt;stroke-linejoin:miter;stroke:rgb(0%,0%,0%);stroke-opacity:1;stroke-miterlimit:10;" d="M 69.597656 166.054688 L 63.417969 144.234375 "/>
<path style=" stroke:none;fill-rule:nonzero;fill:rgb(100%,100%,100%);fill-opacity:1;" d="M 45.789062 176.816406 L 53.789062 176.816406 L 53.789062 187.816406 L 45.789062 187.816406 Z M 45.789062 176.816406 "/>
<g style="fill:rgb(100%,0%,0%);fill-opacity:1;">
  <use xlink:href="#glyph0-2" x="45.789062" y="185.479492"/>
</g>
<path style="fill:none;stroke-width:1.2;stroke-linecap:butt;stroke-linejoin:miter;stroke:rgb(0%,0%,0%);stroke-opacity:1;stroke-miterlimit:10;" d="M 63.417969 144.234375 L 79.222656 127.972656 "/>
<path style="fill:none;stroke-width:1.2;stroke-linecap:butt;stroke-linejoin:miter;stroke:rgb(0%,0%,0%);stroke-opacity:1;stroke-miterlimit:10;" d="M 61.171875 138.886719 L 73.816406 125.878906 "/>
<path style="fill:none;stroke-width:1.2;stroke-linecap:butt;stroke-linejoin:miter;stroke:rgb(0%,0%,0%);stroke-opacity:1;stroke-miterlimit:10;" d="M 41.429688 138.675781 L 63.417969 144.234375 "/>
<path style="fill:none;stroke-width:1.2;stroke-linecap:butt;stroke-linejoin:miter;stroke:rgb(0%,0%,0%);stroke-opacity:1;stroke-miterlimit:10;" d="M 79.222656 127.972656 L 73.042969 106.152344 "/>
<path style="fill:none;stroke-width:1.2;stroke-linecap:butt;stroke-linejoin:miter;stroke:rgb(0%,0%,0%);stroke-opacity:1;stroke-miterlimit:10;" d="M 73.042969 106.152344 L 51.058594 100.59375 "/>
<path style="fill:none;stroke-width:1.2;stroke-linecap:butt;stroke-linejoin:miter;stroke:rgb(0%,0%,0%);stroke-opacity:1;stroke-miterlimit:10;" d="M 69.539062 110.769531 L 51.949219 106.320312 "/>
<path style="fill:none;stroke-width:1.2;stroke-linecap:butt;stroke-linejoin:miter;stroke:rgb(0%,0%,0%);stroke-opacity:1;stroke-miterlimit:10;" d="M 73.042969 106.152344 L 80.949219 98.019531 "/>
<path style="fill:none;stroke-width:1.2;stroke-linecap:butt;stroke-linejoin:miter;stroke:rgb(20%,80%,80%);stroke-opacity:1;stroke-miterlimit:10;" d="M 80.949219 98.019531 L 88.851562 89.890625 "/>
<path style="fill:none;stroke-width:1.2;stroke-linecap:butt;stroke-linejoin:miter;stroke:rgb(0%,0%,0%);stroke-opacity:1;stroke-miterlimit:10;" d="M 51.058594 100.59375 L 35.25 116.855469 "/>
<path style="fill:none;stroke-width:1.2;stroke-linecap:butt;stroke-linejoin:miter;stroke:rgb(0%,0%,0%);stroke-opacity:1;stroke-miterlimit:10;" d="M 35.25 116.855469 L 41.429688 138.675781 "/>
<path style="fill:none;stroke-width:1.2;stroke-linecap:butt;stroke-linejoin:miter;stroke:rgb(0%,0%,0%);stroke-opacity:1;stroke-miterlimit:10;" d="M 41.003906 117.582031 L 45.945312 135.039062 "/>
<path style=" stroke:none;fill-rule:nonzero;fill:rgb(100%,100%,100%);fill-opacity:1;" d="M 85.851562 84.390625 L 91.851562 84.390625 L 91.851562 95.390625 L 85.851562 95.390625 Z M 85.851562 84.390625 "/>
<g style="fill:rgb(20%,80%,80%);fill-opacity:1;">
  <use xlink:href="#glyph0-3" x="85.851562" y="93.053711"/>
</g>
<path style="fill:none;stroke-width:1.2;stroke-linecap:butt;stroke-linejoin:miter;stroke:rgb(0%,0%,0%);stroke-opacity:1;stroke-miterlimit:10;" d="M 151.367188 166.46875 L 162.359375 169.25 "/>
<path style="fill:none;stroke-width:1.2;stroke-linecap:butt;stroke-linejoin:miter;stroke:rgb(0%,0%,100%);stroke-opacity:1;stroke-miterlimit:10;" d="M 162.359375 169.25 L 173.351562 172.027344 "/>
<path style="fill:none;stroke-width:1.2;stroke-linecap:butt;stroke-linejoin:miter;stroke:rgb(0%,0%,100%);stroke-opacity:1;stroke-miterlimit:10;" d="M 173.351562 172.027344 L 176.441406 182.9375 "/>
<path style="fill:none;stroke-width:1.2;stroke-linecap:butt;stroke-linejoin:miter;stroke:rgb(0%,0%,0%);stroke-opacity:1;stroke-miterlimit:10;" d="M 176.441406 182.9375 L 179.53125 193.847656 "/>
<path style="fill:none;stroke-width:1.2;stroke-linecap:butt;stroke-linejoin:miter;stroke:rgb(0%,0%,100%);stroke-opacity:1;stroke-miterlimit:10;" d="M 173.351562 172.027344 L 181.257812 163.898438 "/>
<path style="fill:none;stroke-width:1.2;stroke-linecap:butt;stroke-linejoin:miter;stroke:rgb(0%,0%,0%);stroke-opacity:1;stroke-miterlimit:10;" d="M 181.257812 163.898438 L 189.160156 155.765625 "/>
<path style=" stroke:none;fill-rule:nonzero;fill:rgb(100%,100%,100%);fill-opacity:1;" d="M 170.351562 166.527344 L 177.351562 166.527344 L 177.351562 177.527344 L 170.351562 177.527344 Z M 170.351562 166.527344 "/>
<g style="fill:rgb(0%,0%,100%);fill-opacity:1;">
  <use xlink:href="#glyph0-1" x="170.351562" y="175.19043"/>
</g>
<path style="fill:none;stroke-width:1.2;stroke-linecap:butt;stroke-linejoin:miter;stroke:rgb(0%,0%,0%);stroke-opacity:1;stroke-miterlimit:10;" d="M 191.726562 155.039062 L 188.636719 144.128906 "/>
<path style="fill:none;stroke-width:1.2;stroke-linecap:butt;stroke-linejoin:miter;stroke:rgb(100%,0%,0%);stroke-opacity:1;stroke-miterlimit:10;" d="M 188.636719 144.128906 L 185.546875 133.21875 "/>
<path style="fill:none;stroke-width:1.2;stroke-linecap:butt;stroke-linejoin:miter;stroke:rgb(0%,0%,0%);stroke-opacity:1;stroke-miterlimit:10;" d="M 186.59375 156.492188 L 183.503906 145.582031 "/>
<path style="fill:none;stroke-width:1.2;stroke-linecap:butt;stroke-linejoin:miter;stroke:rgb(100%,0%,0%);stroke-opacity:1;stroke-miterlimit:10;" d="M 183.503906 145.582031 L 180.414062 134.671875 "/>
<path style="fill:none;stroke-width:1.2;stroke-linecap:butt;stroke-linejoin:miter;stroke:rgb(0%,0%,0%);stroke-opacity:1;stroke-miterlimit:10;" d="M 189.160156 155.765625 L 200.152344 158.546875 "/>
<path style="fill:none;stroke-width:1.2;stroke-linecap:butt;stroke-linejoin:miter;stroke:rgb(0%,0%,100%);stroke-opacity:1;stroke-miterlimit:10;" d="M 200.152344 158.546875 L 211.148438 161.324219 "/>
<path style=" stroke:none;fill-rule:nonzero;fill:rgb(100%,100%,100%);fill-opacity:1;" d="M 178.980469 128.445312 L 186.980469 128.445312 L 186.980469 139.445312 L 178.980469 139.445312 Z M 178.980469 128.445312 "/>
<g style="fill:rgb(100%,0%,0%);fill-opacity:1;">
  <use xlink:href="#glyph0-2" x="178.980469" y="137.108398"/>
</g>
<path style="fill:none;stroke-width:1.2;stroke-linecap:butt;stroke-linejoin:miter;stroke:rgb(0%,0%,100%);stroke-opacity:1;stroke-miterlimit:10;" d="M 211.148438 161.324219 L 219.050781 153.195312 "/>
<path style="fill:none;stroke-width:1.2;stroke-linecap:butt;stroke-linejoin:miter;stroke:rgb(0%,0%,0%);stroke-opacity:1;stroke-miterlimit:10;" d="M 219.050781 153.195312 L 226.957031 145.0625 "/>
<path style=" stroke:none;fill-rule:nonzero;fill:rgb(100%,100%,100%);fill-opacity:1;" d="M 204.148438 155.824219 L 218.148438 155.824219 L 218.148438 166.824219 L 204.148438 166.824219 Z M 204.148438 155.824219 "/>
<g style="fill:rgb(0%,0%,100%);fill-opacity:1;">
  <use xlink:href="#glyph0-1" x="204.148438" y="164.487305"/>
  <use xlink:href="#glyph0-4" x="211.125977" y="164.487305"/>
</g>
<path style="fill:none;stroke-width:1.2;stroke-linecap:butt;stroke-linejoin:miter;stroke:rgb(0%,0%,0%);stroke-opacity:1;stroke-miterlimit:10;" d="M 226.957031 145.0625 L 248.941406 150.621094 "/>
<path style="fill:none;stroke-width:1.2;stroke-linecap:butt;stroke-linejoin:miter;stroke:rgb(0%,0%,0%);stroke-opacity:1;stroke-miterlimit:10;" d="M 230.460938 140.445312 L 248.050781 144.890625 "/>
<path style="fill:none;stroke-width:1.2;stroke-linecap:butt;stroke-linejoin:miter;stroke:rgb(0%,0%,0%);stroke-opacity:1;stroke-miterlimit:10;" d="M 220.777344 123.242188 L 226.957031 145.0625 "/>
<path style="fill:none;stroke-width:1.2;stroke-linecap:butt;stroke-linejoin:miter;stroke:rgb(0%,0%,0%);stroke-opacity:1;stroke-miterlimit:10;" d="M 248.941406 150.621094 L 264.75 134.359375 "/>
<path style="fill:none;stroke-width:1.2;stroke-linecap:butt;stroke-linejoin:miter;stroke:rgb(0%,0%,0%);stroke-opacity:1;stroke-miterlimit:10;" d="M 264.75 134.359375 L 258.570312 112.539062 "/>
<path style="fill:none;stroke-width:1.2;stroke-linecap:butt;stroke-linejoin:miter;stroke:rgb(0%,0%,0%);stroke-opacity:1;stroke-miterlimit:10;" d="M 258.996094 133.632812 L 254.054688 116.175781 "/>
<path style="fill:none;stroke-width:1.2;stroke-linecap:butt;stroke-linejoin:miter;stroke:rgb(0%,0%,0%);stroke-opacity:1;stroke-miterlimit:10;" d="M 258.570312 112.539062 L 236.582031 106.980469 "/>
<path style="fill:none;stroke-width:1.2;stroke-linecap:butt;stroke-linejoin:miter;stroke:rgb(0%,0%,0%);stroke-opacity:1;stroke-miterlimit:10;" d="M 236.582031 106.980469 L 220.777344 123.242188 "/>
<path style="fill:none;stroke-width:1.2;stroke-linecap:butt;stroke-linejoin:miter;stroke:rgb(0%,0%,0%);stroke-opacity:1;stroke-miterlimit:10;" d="M 238.828125 112.324219 L 226.183594 125.335938 "/>
</g>
</svg>

<svg xmlns="http://www.w3.org/2000/svg" xmlns:xlink="http://www.w3.org/1999/xlink" width="300pt" height="300pt" viewBox="0 0 300 300"><defs><symbol overflow="visible"><path d="M.453 1.594v-7.938h4.5v7.938zm.5-.5h3.5v-6.938h-3.5zm0 0"/></symbol><symbol overflow="visible" id="a"><path d="M.89-6.563H2.08l2.906 5.485v-5.484h.86V0H4.656L1.75-5.484V0H.89zm0 0"/></symbol><symbol overflow="visible" id="b"><path d="M3.547-5.953c-.65 0-1.164.242-1.547.72-.375.48-.563 1.13-.563 1.952 0 .835.188 1.49.563 1.967.383.48.898.72 1.547.72.644 0 1.156-.24 1.53-.72.376-.476.564-1.132.564-1.968 0-.822-.187-1.474-.562-1.954-.375-.477-.887-.72-1.53-.72zm0-.734c.914 0 1.648.312 2.203.937.55.617.828 1.438.828 2.47 0 1.042-.277 1.87-.828 2.483-.555.617-1.29.922-2.203.922-.93 0-1.668-.305-2.22-.922C.774-1.41.5-2.237.5-3.28c0-1.033.273-1.853.828-2.47.55-.625 1.29-.938 2.22-.938zm0 0"/></symbol><symbol overflow="visible" id="c"><path d="M.89-6.563h3.766v.75h-2.89v1.938h2.61v.734h-2.61V0H.89zm0 0"/></symbol><symbol overflow="visible" id="d"><path d="M.89-6.563h.876v2.688H5v-2.688h.89V0H5v-3.125H1.766V0H.89zm0 0"/></symbol></defs><g><path fill="#fff" d="M0 0h300v300H0z"/><path d="M163.727 210.11l-21.99-5.56M179.53 193.848l-15.803 16.26M141.738 204.55l-6.18-21.82M135.56 182.73l-6.18-21.82M135.56 182.73l15.807-16.26M119.75 198.992l15.81-16.262M129.38 160.91l-21.99-5.558M107.39 155.352l-7.902 8.132" stroke-width="1.2" stroke="#000" stroke-miterlimit="10" fill="none"/><path d="M99.488 163.484l-7.906 8.13M91.582 171.613l3.09 10.91" stroke-width="1.2" stroke="#00f" stroke-miterlimit="10" fill="none"/><path d="M94.672 182.523l3.09 10.91" stroke-width="1.2" stroke="#000" stroke-miterlimit="10" fill="none"/><path d="M91.582 171.613l-10.992-2.777" stroke-width="1.2" stroke="#00f" stroke-miterlimit="10" fill="none"/><path d="M80.59 168.836l-10.992-2.78" stroke-width="1.2" stroke="#000" stroke-miterlimit="10" fill="none"/><path d="M88.582 166.113h7v11h-7zm0 0" fill="#fff"/><use xlink:href="#a" x="88.582" y="174.776" fill="#00f"/><path d="M97.762 193.434l21.988 5.558M67.684 164.195l-7.903 8.133" stroke-width="1.2" stroke="#000" stroke-miterlimit="10" fill="none"/><path d="M59.78 172.328l-7.905 8.13" stroke-width="1.2" stroke="#f00" stroke-miterlimit="10" fill="none"/><path d="M71.508 167.914l-7.903 8.133" stroke-width="1.2" stroke="#000" stroke-miterlimit="10" fill="none"/><path d="M63.605 176.047l-7.902 8.13" stroke-width="1.2" stroke="#f00" stroke-miterlimit="10" fill="none"/><path d="M69.598 166.055l-6.18-21.82" stroke-width="1.2" stroke="#000" stroke-miterlimit="10" fill="none"/><path d="M45.79 176.816h8v11h-8zm0 0" fill="#fff"/><use xlink:href="#b" x="45.789" y="185.479" fill="#f00"/><path d="M63.418 144.234l15.805-16.26M61.172 138.887l12.644-13.008M41.43 138.676l21.988 5.558M79.223 127.973l-6.18-21.82M73.043 106.152l-21.984-5.558M69.54 110.77l-17.59-4.45M73.043 106.152l7.906-8.132" stroke-width="1.2" stroke="#000" stroke-miterlimit="10" fill="none"/><path d="M80.95 98.02l7.902-8.13" stroke-width="1.2" stroke="#3cc" stroke-miterlimit="10" fill="none"/><path d="M51.06 100.594l-15.81 16.26M35.25 116.855l6.18 21.82M41.004 117.582l4.94 17.457" stroke-width="1.2" stroke="#000" stroke-miterlimit="10" fill="none"/><path d="M85.852 84.39h6v11h-6zm0 0" fill="#fff"/><use xlink:href="#c" x="85.852" y="93.054" fill="#3cc"/><path d="M151.367 166.47l10.992 2.78" stroke-width="1.2" stroke="#000" stroke-miterlimit="10" fill="none"/><path d="M162.36 169.25l10.992 2.777M173.352 172.027l3.09 10.91" stroke-width="1.2" stroke="#00f" stroke-miterlimit="10" fill="none"/><path d="M176.44 182.938l3.09 10.91" stroke-width="1.2" stroke="#000" stroke-miterlimit="10" fill="none"/><path d="M173.352 172.027l7.906-8.13" stroke-width="1.2" stroke="#00f" stroke-miterlimit="10" fill="none"/><path d="M181.258 163.898l7.902-8.132" stroke-width="1.2" stroke="#000" stroke-miterlimit="10" fill="none"/><path d="M170.352 166.527h7v11h-7zm0 0" fill="#fff"/><use xlink:href="#a" x="170.352" y="175.19" fill="#00f"/><path d="M191.727 155.04l-3.09-10.91" stroke-width="1.2" stroke="#000" stroke-miterlimit="10" fill="none"/><path d="M188.637 144.13l-3.09-10.91" stroke-width="1.2" stroke="#f00" stroke-miterlimit="10" fill="none"/><path d="M186.594 156.492l-3.09-10.91" stroke-width="1.2" stroke="#000" stroke-miterlimit="10" fill="none"/><path d="M183.504 145.582l-3.09-10.91" stroke-width="1.2" stroke="#f00" stroke-miterlimit="10" fill="none"/><path d="M189.16 155.766l10.992 2.78" stroke-width="1.2" stroke="#000" stroke-miterlimit="10" fill="none"/><path d="M200.152 158.547l10.996 2.777" stroke-width="1.2" stroke="#00f" stroke-miterlimit="10" fill="none"/><path d="M178.98 128.445h8v11h-8zm0 0" fill="#fff"/><use xlink:href="#b" x="178.98" y="137.108" fill="#f00"/><path d="M211.148 161.324l7.903-8.13" stroke-width="1.2" stroke="#00f" stroke-miterlimit="10" fill="none"/><path d="M219.05 153.195l7.907-8.132" stroke-width="1.2" stroke="#000" stroke-miterlimit="10" fill="none"/><path d="M204.148 155.824h14v11h-14zm0 0" fill="#fff"/><g fill="#00f"><use xlink:href="#a" x="204.148" y="164.487"/><use xlink:href="#d" x="211.126" y="164.487"/></g><path d="M226.957 145.063l21.984 5.558M230.46 140.445l17.59 4.446M220.777 123.242l6.18 21.82M248.94 150.62l15.81-16.26M264.75 134.36l-6.18-21.82M258.996 133.633l-4.94-17.457M258.57 112.54l-21.988-5.56M236.582 106.98l-15.805 16.262M238.828 112.324l-12.644 13.012" stroke-width="1.2" stroke="#000" stroke-miterlimit="10" fill="none"/></g></svg>
